X:1
T:No mi giamedas Maria
T:No mi giamedas Maria
T:Trascriz: B. Ruiu 1955
C:Trascriz: B. Ruiu 1955
%%score 1 2 3 4
L:1/8
Q:1/4=80
M:3/4
K:G
V:1 treble-8 nm="Tenore" snm="T."
V:2 treble-8 nm="Tenore" snm="T."
V:3 bass nm="Baritono" snm="Bar."
V:4 bass nm="Basso" snm="B."
V:1
"^Andantino\nSolo e Coro" G4 A/G/F/G/ | A4 B/A/^G/A/ | B2 B>^c A2 | B6 |!<(! d4 d^c!<)! | %5
w: No- * * * mi|gia- * * * *|me- da- as Ma-|ri-||
w: Gia- * * * ma-|de- * * * *|mi s'a- at- tri-|sta-||
w: Sa- * * * de|do- * * * *|los ga- ar- ri-|da-||
[M:2/4] ^c3 d/c/ |[M:3/4] B^c!>(! d4 | ^c4!>)!"^Solo" B>A |"^Coro" B3 =c cB |!<(! A4 c>B!<)! | %10
w: a,- * *||* men- zus|ma- ma e do-|lo- * re-|
w: da,- * *||* gia- ma-|de- mi s'af- fli-|zi- * *|
w: da,- * *||* sa de|pe- nas con- su-|mi- * *|
!>(! B6- | B2!>)! z4 :| %12
w: se-|.|
w: da-|.|
w: da-|.|
V:2
 z6 | z6 | z6 | ^G6 |!<(! B4- BA!<)! |[M:2/4] A3 B/A/ |[M:3/4] ^GA!>(! B4 | A4!>)! z2 | =G3 A AG | %9
w: |||ri-||a,- * *|||ma- ma e do-|
w: |||sta-||da,- * *|||de- mi s'af- fli-|
w: |||da-||da,- * *|||pe- nas con- su-|
!<(! F4 A>G!<)! |!>(! G6-!>)! | G2 z4 :| %12
w: lo- do- re-|se-|.|
w: zi- fli- zi-|da-|.|
w: mi- su- mi-|da-|.|
V:3
 z6 | z6 | z6 | E,6 |!<(! E,6!<)! |[M:2/4] E,4 |[M:3/4]!>(! E,6 | E,4!>)! z2 | D,3 D, D,D, | %9
w: |||ri-||a,-|||ma- ma e do-|
w: |||sta-||da,-|||de- mi s'af- fli-|
w: |||da-||da,-|||pe- nas con- su-|
!<(! D,4 D,>D,!<)! |!>(! D,6-!>)! | D,2 z4 :| %12
w: lo- men- re-|se-|.|
w: zi- gia- ma-|da-|.|
w: mi- sa de|da-|.|
V:4
 z6 | z6 | z6 | ^G,,6 |!<(! ^G,,4- G,,A,,!<)! |[M:2/4] A,,3 ^G,,/A,,/ | %6
w: |||ri-||a,- * *|
w: |||sta-||da,- * *|
w: |||da-||da,- * *|
[M:3/4] B,,A,,!>(! ^G,,4!>)! | A,,4 z2 | =G,,3 F,, F,,G,, |!<(! F,,4 F,,>G,,!<)! |!>(! G,,6-!>)! | %11
w: ||ma- ma e do-|lo- do- re-|se-|
w: ||de- mi s'af- fli-|zi- fli- zi-|da-|
w: ||pe- nas con- su-|mi- su- mi-|da-|
!>(! G,,2 z4!>)! :| %12
w: .|
w: .|
w: .|

